X:307
T:
R:polska
S:Efter fanjunkar Lindbom i Sanda (vintern 1877).
O:Gotland, Sanda
M:3/4
L:1/16
K:A
[A,EA]2AB c2cd B2Bc|A2Ac BAGF F2E2|CEAc e4 d4|cAce edBd d2c2|
Aaga efec dcdB|Aaga efec dcdB|Aaga afdf fece|edcB B4 A4:|
|:GAcA GAce edcd|dBGB EGBd fedB|GAcA GAce edcd|dBGB EGBd fedB|
Aaga ecec dcdB|eaga efec dcdB|Aaga afdf fece|edcB B4 A4:|

